X:1
T:Voce mea ad Dominum clamavi (ps 141)
T:Ignatio Donati
T:Source : Primo libro di Motetti a voce sola---Venetia---A.Vincenti---1634. Editor : André Vierendeels (15/12/16).
T:Notes : Original clefs : F4, F4 Editorial accidentals above the staff Figures in BC are notated in original print 
T:Voce mea ad Dominum clamavi (ps 141)
T:©
T:©
T:©
T:©
T:©
T:©
T:©
T:©
C:Ignatio Donati
Z:©
%%score 1 2
L:1/8
Q:1/4=120
M:4/4
K:C
V:1 bass nm="Bass" snm="B"
V:2 bass nm="MusicXML Part"
V:1
 z4 A,,B,,/C,/ D,/E,/F,/G,/ | A,4 A,G,G,F, | E,4 E,4 | z4 C,D,/E,/ F,/G,/A,/B,/ | C4- CB,B,A, | %5
w: Vo- * * * * * *|* * * * ce|me- a,|vo- * * * * * *|* * * * ce|
 G,4 G,2 G,2 | G,2 ^F,2 A,4- | A,2 A,/G,/A,/B,/ C4- | C4 B,/A,/G,/F,/ G,/F,/E,/F,/ | %9
w: me- a ad|Do- mi- num|_ cla- * * * *|* ma- * * * * * * *|
 G,/F,/E,/D,/ E,/D,/E,/C,/ G,2 G,,2 | C,8 | z4 F,2 G,2 | A,TG,G,F, E,2 G,2 | G,TF,F,E, D,2 F,2- | %14
w: |vi,|vo- ce|me- * * * a ad|Do- * * mi- num de|
 F,E,E,D, C,2 C,2 | D,/C,/B,,/C,/ D,/E,/D,/E,/ F,/E,/D,/E,/ F,/G,/A,/F,/ | %16
w: _ _ _ _ _ pre-|ca- * * * * * * * * * * * * * * *|
 ^G,3 ^F, E,/F,/G,/A,/ F,/G,/A,/B,/ | ^G,2 A,4 G,2 | A,8 | z8 | z4 E,4 | ^C,4 D,4 | %22
w: |* * tus|sum,||ef|fun- do|
 B,,A,,B,,G,, C,4 | A,,A,G,F, E,2 E,2 | F,<E, F,<E, F,<E, F,/E,/F,/G,/ | E,8 | z8 | z4 A,4 | %28
w: in con- spe- ctu e-|ius o- ra- ti- o- nem|me- * * * * * * * * *|am,||ef-|
 ^F,4 G,4 | E,D,E,C, F,4 | D,D,C,B,, A,,2 _B,2 | A,/G,/F,/E,/ F,/E,/F,/D,/ A,2 A,,2 | D,8 | z8 | %34
w: fun- do|in con spe- ctu e-|ius o- ra- ti- o- nem|me- * * * * * * * * *|am,||
 z4 F,4- | F,2 E,E, E,2 D,2 | D,6 ^C,2 | z2 D,/C,/B,,/A,,/ _B,,A,, B,,/A,,/B,,/C,/ | A,,4 A,2 G,2 | %39
w: et|_ tri- bu- la- ti-|o- nem|me- * * * * * * * * *|am an- te|
 ^F,4 G,4- | G,4 F,/G,/A,/B,/ G,/A,/F, | G,6 F,2 | F,8 | z4 A,4- | A,2 G,G, G,2 F,2 | F,6 E,2 | %46
w: i- psum|_ pro- * * * * * *|nun- ti-|o,|et|_ tri- bu- la- ti-|o- nem|
 z2 F,/E,/D,/C,/ D,E, F,/E,/E,/D,/ | E,4 A,2 B,2- | B,2 C4 A,F, | G,3 F, F,4 | z4 G,2 A,2 | %51
w: me- * * * * * * * * *|am an- te|_ i- psum pro-|nun- ti- o,|an- te|
 _B,6 B,A, | A,6 G,2 | G,8 | z4 A,4- | A,2 G,2 G,2 E,/F,/G,/E,/ | F,4 E,2 D,2 | C,4 E,4- | %58
w: i- psum pro-|nun- ti-|o,|in|_ de- fi- cien- * * *|* do ex|me, in-|
 E,2 D,2 D,2 B,,/C,/D,/B,,/ | C,4 B,,2 A,,2 | G,,4 A,,4- | A,,2 A,,2 G,,4 | F,,8 | E,,4 z2 E,2 | %64
w: * de- fi- cien- * * *|* do ex|me, spi-|* ri- tum|me-|um, et|
 A,4 z2 D,2 | G,6 E,E, | F,2 D,2 E,F,E,F, | G,F,D,E, F,G,F,G, | %68
w: tu, et|tu co- gno-|vi- ti se- * * *||
 A,G,E,F, G,/F,/E,/F,/ G,/F,/E,/D,/ | C,/B,,/C,/D,/ E,/D,/C,/B,,/ C,2 B,,A,, | %70
w: |* * * * * * * * * mi- tas|
 G,,/A,,/B,,/C,/ D,/E,/F,/G,/ G,,4 | C,4 z2 E,2 | F,4 z2 D,2 | E,6 A,G, | ^F,2 D,4 G,2- | %75
w: me- * * * * * * * *|as, et|tu, et|tu co- gno-|vi- sti se-|
 G,F, E,>D, C,>B,, A,,>G,, | F,,F,/E,/ D,2 C,CB,A, | %77
w: ||
 G,/F,/E,/F,/ G,/D,/E,/F,/ G,/F,/E,/D,/ E,/D,/C,/B,,/ | A,,B,,/C,/ D,/E,/F,/G,/ A,2 G,F, | %79
w: |* * * * * * * * * mi-|
 E,2 F,/E,/F,/D,/ E,/D,/C,/B,,/ C,/B,,/C,/A,,/ | E,8 | A,,8 |] %82
w: tas me- * * * * * * * * * * *||as.|
V:2
"^BC" A,,8 | A,,8 |"^#" E,6 D,2 | C,8 | C,8 | G,,4 G,,4 |"^#" G,2 ^F,2 A,4 | D,4 E,2 F,2 | G,8 | %9
 G,,8 | C,4 C,4 | F,4 D,4 | A,,4 E,4 | G,,4 D,4 | F,,4 C,4 | D,8 |"^#" E,8 |"^#" E,8 | %18
"^#" A,,4 A,4 | ^F,4 G,4 |"^(-natural)" E,8 |"^#""^#" A,,4 D,4 | G,,4 C,4 | A,,4 E,4 | F,8 | %25
"^(-natural)""^(-natural)" E,4 E,4 | ^C,2 D,2 B,,4 |"^#" A,,8 |"^#" D,4 B,,4 | C,4 F,4 | %30
"^b" D,2 C,B,, A,,2 G,,2 |"^#" A,,8 |"^#""^b" D,8 | G,4 E,4 | F,8 | C,4 D,4 |"^#" A,,8 | _B,,8 | %38
"^#" A,,8 |"^#" D,2 C,2 B,,4 | C,8- | C,8 | F,,4 F,4 |"^(-natural)" D,2 E,2 A,,4 | E,4 F,4 | C,8 | %46
 D,8 | A,,8 | A,2 G,2 F,4 | C,4 F,,4 |"^b" _B,,2 A,,2 G,,4 |"^b" _E,2 D,2 C,4 |"^#" D,8 | %53
 G,,2 G,2 G,2 E,2 | F,8 | E,8 | D,8 | C,8 | B,,8 | A,,8 | G,,4 A,,4- | A,,4 G,,4 | F,,8 | %63
"^#""^#" E,,4 E,4 |"^#""^#""^#" A,,2 A,,2 D,4 | G,,4 C,4 | F,2 D,2 C,4 | G,,4 D,4 | A,,4 E,4 | %69
 C,6 B,,A,, | G,,2 F,,2 G,,4 | C,4 E,4 | F,2 F,2 D,4 |"^#""^#" E,4 A,,4 | D,4 G,,4 | C,4 C,4 | %76
 F,,4 C,4 | G,,8 | A,,8 |"^#" E,8- | E,8 | A,,8 |] %82

